app/dist/common/images/rapt-therapeutics.svg

<svg height="18" width="18" xmlns="http://www.w3.org/2000/svg"><path d="m0 0h18v18h-18z" fill="#f0f3fa"/><circle cx="6.33" cy="6.33" fill="#0095a8" r="2.33"/><circle cx="6.33" cy="11.67" fill="#ff9e1a" r="2.33"/><circle cx="11.67" cy="6.33" fill="#ff9e1a" r="2.33"/><circle cx="11.67" cy="11.67" fill="#0095a8" r="2.33"/><path d="m8.1 13.18-3.1-1.82v-1.62a2.33 2.33 0 0 1 3.1 3.44zm4.9-3.43v1.63l-3.09 1.83a2.33 2.33 0 0 1 3.09-3.45zm-3.1-4.93 3.1 1.83v1.6a2.33 2.33 0 0 1 -3.1-3.43zm-3.57 3.85a2.33 2.33 0 0 0 1.8-3.83l-3.13 1.84v1.57c.38.26.84.42 1.33.42z" fill="#e55204"/></svg>

<!-- by TradingView --><svg xmlns="http://www.w3.org/2000/svg" width="18" height="18"><path fill="#F0F3FA" d="M0 0h18v18H0z"/><circle cx="6.33" cy="6.33" fill="#0095A8" r="2.33"/><circle cx="6.33" cy="11.67" fill="#FF9E1A" r="2.33"/><circle cx="11.67" cy="6.33" r="2.33" fill="#FF9E1A"/><circle cx="11.67" cy="11.67" fill="#0095A8" r="2.33"/><path d="M8.1 13.18L5 11.36V9.74a2.33 2.33 0 013.1 3.44zM13 9.75v1.63l-3.09 1.83A2.33 2.33 0 0113 9.76zM9.9 4.82L13 6.65v1.6a2.33 2.33 0 01-3.1-3.43zM6.33 8.67a2.33 2.33 0 001.8-3.83L5 6.68v1.57c.38.26.84.42 1.33.42z" fill="#E55204"/></svg>
